X:329
T:Okeechobee Wind
C:Jesse McReynolds - CD - Bending The Rules
N:Transcribed by Wendy Anthony 28 Oct 2004
R:bluegrass
L:1/8
Q:1/4=176
M:3/4
K:D
z6 | "D"Dd DD dD | "C"E=c EE cD | "G"DB =cD BG | "D"AF DD B,D | "D"Dd DD dD | 
"C"E=c EE cE | "G"DB =cD BF | "A"AE CD B,D | "D"A,d DD dD | "C"E=c EE cD | "G"DD {B}=cc BG | 
"D"AF D2 D2 | "D"d'b ag a=f | "D"ed =cA Ac | "D"d=c AA GF | "D"D2 D4 | "D"Dd DD dD | 
"C"E=c EE cD | "G"DB =cD Bd | "D"AF DD B,D | "D"A,d DA, dD | "C"A,=c EA, cD | 
"G"G,B DG, BD | "A"ec AA FA | "D"A,d DA, dD | "C"A,=c EA, cD | "G"G,B =cc BG | 
"D"AF D2 A,2 | "D"DC ED FE | "D"GF AG BA | "D"dc ed gf | "D"d2 f2 f3/2g/ | "C"[=c'/g/][c'/g/][c'/g/][c'/g/] [c'/g/][c'/g/][c'/g/][c'/g/] [c'/g/][c'/g/][c'/g/][c'/g/] | 
"C"[b/f/][=c'/g/][c'/g/][c'/g/] [c'/g/][c'/g/][c'/g/][c'/g/] [c'/g/][c'/g/][c'/g/][c'/g/] | 
"C"[b/f/][=c'/g/][c'/g/][c'/g/] [c'/g/][c'/g/][c'/g/][c'/g/] [c'/g/][c'/g/][c'/g/][c'/g/] | 
"C"[e/=c/][e/c/][e/c/][e/c/] [e/c/][e/c/][e/c/][e/c/] [e/c/][e/c/][e/c/][e/c/] | 
"D"[e/=c/][a/f/][a/f/][a/f/] [a/f/][a/f/][a/f/][a/f/] [a/f/][a/f/][a/f/][^g/=f/] | 
"D"[a/f/][a/f/][a/f/][a/f/] [a/f/][a/f/][a/f/][a/f/] [a/f/][a/f/][a/f/][^g/=f/] | 
"D"[a/f/][a/f/][a/f/][a/f/] [a/f/][a/f/][a/f/][a/f/] [a/f/][a/f/][a/f/][a/f/] | 
"D"[f/d/][f/d/][f/d/][f/d/] [f/d/][f/d/][f/d/][f/d/] [f/d/][f/d/][f/d/][f/d/] | 
"C"[=c'/g/][c'/g/][c'/g/][c'/g/] [c'/g/][c'/g/][c'/g/][c'/g/] [c'/g/][c'/g/][c'/g/][c'/g/] | 
"C"[b/f/][=c'/g/][c'/g/][c'/g/] [c'/g/][c'/g/][c'/g/][c'/g/] [c'/g/][c'/g/][c'/g/][c'/g/] | 
"C"[b/f/][=c'/g/][c'/g/][c'/g/] [c'/g/][c'/g/][c'/g/][c'/g/] [c'/g/][c'/g/][c'/g/][c'/g/] | 
"C"[e/=c/][e/c/][e/c/][e/c/] [e/c/][e/c/][e/c/][e/c/] [e/c/][e/c/][e/c/][e/c/] | 
"D"[e/=c/][a/f/][a/f/][a/f/] [a/f/][a/f/][a/f/][a/f/] [a/f/][a/f/][a/f/][^g/=f/] | 
"D"[a/f/][a/f/][a/f/][a/f/] [a/f/][a/f/][a/f/][a/f/] [a/f/][a/f/][a/f/][^g/=f/] | 
"D"[a/f/][a/f/][a/f/][a/f/] [a/f/][a/f/][a/f/][a/f/] [a/f/][a/f/][a/f/][a/f/] | 
"D"[f/d/][f/d/][f/d/][f/d/] [f/d/][f/d/][f/d/][f/d/] [f/d/][f/d/][f/d/][f/d/] | 


